X:1875
T:Bourrée - La Bobine (Patrick Bouffard)
M:3/8
L:1/8
K:G
BAG|B/A/G2|B/A/G/A/B/c/|d2A/d/A/F/|AGF|\
A/G/F2|1d/e/d/c/A/c/|B2G:|2d/e/d/c/B/A/|G3||
|:B>AG|F/G/A/B/c/d/|edB|cBG|A/B/AG|\
F>DF/A/|d^cd|1B2G:|2G3||


